src/wp-content/themes/aquaban/assets/images/surprise.svg

<svg width="70" height="70" viewBox="0 0 70 70" fill="none" xmlns="http://www.w3.org/2000/svg">
<path d="M58.0042 0.727338C59.5464 0.397846 61.2308 0.823041 62.4147 1.86894C64.0745 3.26347 64.6583 5.75996 63.7792 7.74374C63.2337 9.0289 62.144 10.0734 60.8302 10.5478C59.5601 11.0209 58.1013 10.9594 56.879 10.3728C55.5925 9.77402 54.578 8.61464 54.1638 7.25566C53.7755 6.01562 53.8862 4.62792 54.4687 3.46581C55.1509 2.08085 56.4907 1.03906 58.0042 0.727338ZM58.156 2.80136C56.7601 3.20742 55.7907 4.69492 56.0095 6.13593C56.1804 7.77519 57.8429 9.05214 59.4712 8.78691C61.1501 8.60507 62.438 6.86054 62.0894 5.20214C61.8282 3.43984 59.8458 2.22441 58.156 2.80136Z" fill="#222222"/>
<path d="M41.5419 2.841C41.8031 2.40897 42.2638 2.0535 42.7915 2.08495C43.3124 2.09041 43.7376 2.46913 43.9906 2.89706C44.5443 3.8076 45.0884 4.72635 45.6366 5.63963C46.6921 5.9035 47.7503 6.1537 48.8031 6.4326C49.2925 6.54745 49.7765 6.8742 49.9009 7.3869C50.039 7.85174 49.8298 8.33163 49.5304 8.68163C48.8318 9.53065 48.1263 10.3728 47.4249 11.2191C47.4933 12.3566 47.6095 13.4914 47.6833 14.6289C47.7298 15.1224 47.5411 15.6693 47.0954 15.9264C46.7181 16.1697 46.2341 16.1328 45.8294 15.9824C44.8081 15.5996 43.8238 15.1197 42.797 14.7547C42.1708 14.8764 41.6075 15.225 41.0074 15.4396C40.3347 15.6775 39.6976 16.1068 38.962 16.1C38.2853 16.0822 37.7548 15.4246 37.8068 14.7629C37.8683 13.5789 38.0064 12.4004 38.0734 11.2178C37.3761 10.3824 36.6843 9.54295 35.9857 8.70897C35.6781 8.3494 35.4525 7.85995 35.596 7.38143C35.7177 6.89198 36.1689 6.56659 36.6392 6.44764C37.707 6.17147 38.7816 5.91991 39.8493 5.64647C40.4236 4.71678 40.965 3.76795 41.5419 2.841ZM42.7464 4.80975C42.3199 5.50838 41.9165 6.22069 41.4763 6.91112C41.2685 7.24471 40.9294 7.47713 40.5507 7.57831C39.7741 7.79569 38.9839 7.96112 38.2032 8.16756C38.7706 8.91131 39.4734 9.55936 39.9396 10.3742C40.3279 11.4297 39.9533 12.5685 39.9437 13.6568C40.6738 13.3834 41.3751 13.0279 42.1148 12.7791C43.3466 12.4428 44.4417 13.2726 45.5532 13.6582C45.5013 12.9308 45.4275 12.2062 45.3851 11.4789C45.3509 10.9525 45.4521 10.3974 45.7939 9.98182C46.2861 9.37069 46.796 8.77459 47.2923 8.1662C46.4939 7.96385 45.6913 7.77518 44.897 7.56327C44.4841 7.45526 44.1519 7.15721 43.9413 6.79354C43.5366 6.13592 43.1511 5.466 42.7464 4.80975Z" fill="#222222"/>
<path d="M65.6336 11.0715C66.6358 10.6066 67.6817 10.217 68.7631 9.98457C69.3209 9.83144 69.8432 10.2553 70.0004 10.7721V11.1193C69.9075 11.5514 69.5821 11.9096 69.1418 11.9916C67.8813 12.3129 66.6508 12.7736 65.5256 13.4312C62.5246 15.1471 60.3522 18.0728 59.1559 21.2789C58.9686 21.7465 58.8797 22.2496 58.6733 22.7103C58.3766 23.2887 57.5002 23.3912 57.0641 22.9154C56.736 22.6078 56.7209 22.117 56.8576 21.715C58.1811 17.1883 61.3092 13.0853 65.6336 11.0715Z" fill="#222222"/>
<path d="M22.9127 16.0658C24.8814 15.1484 27.2891 15.251 29.1703 16.342C30.9436 17.3414 32.1904 19.1775 32.5309 21.1777C32.9369 23.4336 32.3326 25.74 31.3373 27.7635C32.9998 26.8365 34.6623 25.9109 36.3262 24.984C36.9441 24.6422 37.5607 24.2252 38.2854 24.165C39.4734 24.0215 40.6998 24.6586 41.2699 25.7086C41.9877 26.9992 42.7219 28.2803 43.4205 29.5805C44.141 30.9682 43.5449 32.8316 42.1682 33.5617C37.5225 36.1607 32.8658 38.742 28.2201 41.3424C36.6338 41.3465 45.0461 41.341 53.4598 41.3451C54.8201 41.2932 56.0314 42.5291 55.9699 43.8867C55.9727 51.1328 55.9699 58.3775 55.9713 65.6236C55.9877 66.515 55.6896 67.4105 55.1072 68.09C54.4086 68.9322 53.3176 69.4053 52.2279 69.3889C40.8297 69.3875 29.4301 69.3943 18.0318 69.3848C16.1492 69.4189 14.432 67.7865 14.4033 65.8984C14.3828 60.282 14.402 54.6643 14.3938 49.0478C12.3566 50.1799 10.3223 51.3146 8.28652 52.448C7.71504 52.7734 7.11758 53.118 6.44355 53.1467C5.30606 53.2424 4.15215 52.634 3.59023 51.6414C2.86426 50.3562 2.14648 49.067 1.43691 47.7736C0.705469 46.4297 1.21953 44.5908 2.53887 43.8184C4.55 42.6768 6.58027 41.5693 8.59551 40.4346C6.41211 40.2144 4.18359 39.5719 2.48418 38.1268C1.04453 36.9209 0.136719 35.1258 0 33.2541V32.509C0.113477 30.4691 1.15527 28.5018 2.8123 27.3C4.48027 26.0353 6.67734 25.6498 8.72129 25.9314C11.6047 26.3197 14.2311 27.7457 16.5512 29.441C16.9641 29.2127 17.3756 28.9816 17.7871 28.7492C17.5465 25.7961 17.7023 22.6953 19.0271 19.991C19.235 19.5973 19.4209 19.1092 19.8803 18.9506C20.4367 18.725 21.1244 19.1064 21.2324 19.6957C21.3445 20.2002 20.9836 20.6309 20.7963 21.0684C19.8516 23.1109 19.6848 25.4146 19.7668 27.6363C20.6186 27.1086 21.6234 26.8557 22.6215 26.9883C22.9715 25.5131 23.4855 24.0611 24.2676 22.7568C24.5383 22.2469 25.2561 22.0664 25.7277 22.4055C26.1967 22.6994 26.3156 23.3721 26.0094 23.8273C25.2998 25.0797 24.8062 26.451 24.541 27.866C25.3586 28.5975 25.7633 29.6379 26.317 30.558C26.8146 30.2422 27.4395 30.0672 27.7908 29.5627C28.901 28.0643 29.8635 26.4182 30.3447 24.6025C30.6865 23.2969 30.7494 21.8695 30.2531 20.5926C29.7596 19.2814 28.6768 18.2027 27.3438 17.757C26.1898 17.3441 24.8951 17.4344 23.7754 17.9143C23.2449 18.174 22.5449 17.8855 22.3727 17.3154C22.199 16.8396 22.4465 16.2654 22.9127 16.0658ZM37.9176 26.4414C34.3889 28.4238 30.8396 30.3693 27.3178 32.3641C28.3377 34.1715 29.3398 35.9898 30.3557 37.8C33.9391 35.8053 37.5211 33.8064 41.1045 31.809C41.5871 31.5848 41.8332 30.9559 41.5748 30.4773C40.9555 29.3207 40.2951 28.1873 39.6676 27.0361C39.4953 26.7326 39.3176 26.3785 38.9607 26.2637C38.6053 26.1105 38.2266 26.2555 37.9176 26.4414ZM5.89121 28.0807C4.57324 28.4047 3.37012 29.251 2.69609 30.4404C1.90996 31.783 1.83203 33.5221 2.53477 34.9166C3.13496 36.1771 4.29297 37.0918 5.56035 37.6236C7.55781 38.4535 9.77266 38.5547 11.9041 38.3811C12.5057 38.3975 12.9678 37.9613 13.4791 37.7125C12.9814 36.7363 12.276 35.8312 12.1174 34.7197C10.7611 34.2426 9.33652 34.017 7.91465 33.8475C7.39102 33.8092 6.94941 33.3361 6.97129 32.8084C6.96582 32.2437 7.50039 31.742 8.06641 31.809C9.53613 31.9498 10.9977 32.215 12.4086 32.6553C12.827 31.6996 13.6363 30.9873 14.566 30.5471C13.0662 29.5285 11.4406 28.6576 9.67832 28.1955C8.44785 27.8756 7.13398 27.7662 5.89121 28.0807ZM21.0561 29.2797C19.0695 30.3844 17.0816 31.4891 15.1006 32.6006C14.2967 33.0271 13.9139 34.0922 14.2926 34.9248C14.5906 35.5359 14.9488 36.117 15.2742 36.7144C18.3572 34.9959 21.4402 33.2773 24.5232 31.5574C24.165 30.9477 23.8656 30.3023 23.4637 29.7199C22.9236 28.9898 21.8203 28.7943 21.0561 29.2797ZM16.2736 38.5027C17.2799 40.3238 18.2984 42.1367 19.3088 43.9537C22.3932 42.2351 25.4803 40.5221 28.5619 38.7967C27.5488 36.9824 26.5385 35.1668 25.5254 33.3512C22.4396 35.067 19.3594 36.7896 16.2736 38.5027ZM3.69141 45.5205C3.19512 45.7557 2.99961 46.4215 3.28809 46.8891C3.97031 48.125 4.65801 49.3582 5.35117 50.5887C5.61094 51.1027 6.31914 51.2477 6.78809 50.9332C10.3674 48.948 13.9412 46.9478 17.5164 44.9545C16.5074 43.1361 15.493 41.3219 14.4799 39.5062C10.8842 41.5119 7.28438 43.5094 3.69141 45.5205ZM24.5328 43.4123C21.823 44.8793 19.142 46.4078 16.4459 47.9021C16.4486 53.8549 16.4391 59.8076 16.45 65.7603C16.4377 66.6148 17.2102 67.3586 18.0619 67.334C21.7943 67.3449 25.5268 67.3353 29.2592 67.3381C29.266 64.0281 29.2564 60.7182 29.2633 57.4082C29.2305 56.9488 29.5271 56.4935 29.9688 56.3582C30.6332 56.1121 31.3838 56.7123 31.31 57.4123C31.3168 60.7209 31.3072 64.0295 31.3141 67.3395C33.8939 67.3381 36.4725 67.3394 39.0523 67.3381C39.0537 59.3564 39.0537 51.3762 39.0523 43.3945C36.4725 43.3932 33.8939 43.3959 31.3141 43.3945C31.3086 46.3846 31.3154 49.376 31.3113 52.3674C31.3551 52.8705 31.0037 53.3791 30.4992 53.4734C29.91 53.6211 29.2674 53.1289 29.2701 52.5191C29.2482 49.4785 29.2701 46.4365 29.2592 43.3945C27.6842 43.4068 26.1064 43.3685 24.5328 43.4123ZM41.1045 43.3973C41.1045 51.3762 41.1045 59.3564 41.1045 67.3367C44.8137 67.3394 48.5242 67.3408 52.2334 67.3354C52.8172 67.3531 53.4051 67.0592 53.6963 66.5451C53.9916 66.0639 53.9096 65.476 53.9219 64.9387C53.9191 57.966 53.9205 50.9947 53.9205 44.0221C53.9725 43.7213 53.7852 43.3644 53.4434 43.4C49.3309 43.3891 45.217 43.3945 41.1045 43.3973Z" fill="#222222"/>
<path d="M50.3697 17.3045C50.9753 17.0379 51.7259 17.5164 51.7587 18.1726C51.9993 20.7225 52.0267 23.2941 51.8558 25.8494C51.6712 28.2406 51.3281 30.64 50.546 32.9164C50.0169 34.4394 49.2855 35.9215 48.1986 37.1273C47.9538 37.4226 47.5478 37.5785 47.1718 37.4842C46.6742 37.3803 46.3118 36.8648 46.3829 36.3617C46.4062 36.0596 46.6208 35.8271 46.8027 35.6043C47.9087 34.3109 48.5376 32.6894 48.982 31.0652C50.0156 26.9541 50.0525 22.657 49.7298 18.4502C49.6492 17.9785 49.913 17.4699 50.3697 17.3045Z" fill="#222222"/>
<path d="M61.6341 26.3594C61.902 25.9356 62.3751 25.6074 62.8946 25.6594C63.4347 25.6867 63.838 26.1065 64.095 26.544C64.631 27.4313 65.1587 28.3227 65.6919 29.2113C66.6722 29.4574 67.6538 29.6926 68.6327 29.94C69.2534 30.0563 69.881 30.4281 69.9999 31.0981V31.3865C69.9315 31.7065 69.788 32.0072 69.5802 32.2602C68.8829 33.1188 68.1528 33.95 67.4692 34.8195C67.5581 35.8832 67.6456 36.9469 67.7304 38.0119C67.7728 38.4768 67.7208 39.0059 67.3544 39.3381C67.0194 39.6799 66.4903 39.7455 66.0474 39.6047C64.9345 39.2451 63.9022 38.6477 62.7798 38.3264C62.1413 38.5068 61.552 38.8309 60.9327 39.0633C60.3188 39.2943 59.7269 39.6594 59.0556 39.6731C58.4007 39.6772 57.8538 39.0756 57.8661 38.4303C57.8839 37.2313 58.0835 36.0404 58.1108 34.8414C57.4464 33.8488 56.57 33.0066 55.8659 32.0387C55.5911 31.6613 55.5146 31.1322 55.7429 30.7139C55.9397 30.3242 56.3499 30.1055 56.7587 30.0016C57.6884 29.7623 58.6235 29.5408 59.556 29.3098C59.7022 29.2551 59.9005 29.2441 59.9812 29.0869C60.5485 28.1887 61.0612 27.2549 61.6341 26.3594ZM62.8044 28.3801C62.3901 29.0555 61.995 29.7418 61.578 30.4131C61.3716 30.7522 61.053 31.0242 60.6661 31.1295C59.869 31.3537 59.061 31.5356 58.2585 31.7379C58.763 32.3627 59.2976 32.9629 59.7897 33.5986C60.0987 33.9924 60.1903 34.5078 60.1671 34.9973C60.1288 35.7424 60.0454 36.4861 59.9962 37.2313C60.7591 36.9441 61.4864 36.56 62.2685 36.3262C63.4702 36.0582 64.5229 36.858 65.6085 37.2299C65.5579 36.5299 65.4882 35.8326 65.4417 35.1326C65.4007 34.5899 65.4813 34.0061 65.8341 33.5713C66.3276 32.952 66.8458 32.3531 67.3448 31.7393C66.5901 31.5383 65.8272 31.3701 65.0726 31.1705C64.6788 31.0762 64.3124 30.8561 64.0936 30.5088C63.6438 29.8115 63.2392 29.0856 62.8044 28.3801Z" fill="#222222"/>
</svg>

<svg width="70" height="70" fill="none" xmlns="http://www.w3.org/2000/svg"><path d="M58.004.727c1.542-.33 3.227.096 4.41 1.142 1.66 1.394 2.244 3.891 1.365 5.875a5.151 5.151 0 01-2.949 2.804 5.114 5.114 0 01-3.951-.175 5.14 5.14 0 01-2.715-3.117 5.13 5.13 0 01.305-3.79A5.165 5.165 0 0158.004.727zm.152 2.074c-1.396.406-2.365 1.894-2.146 3.335.17 1.64 1.833 2.916 3.461 2.65 1.68-.18 2.967-1.925 2.618-3.584-.26-1.762-2.243-2.978-3.933-2.4zm-16.614.04c.261-.432.722-.788 1.25-.756.52.005.946.384 1.199.812.553.91 1.097 1.83 1.646 2.743 1.055.264 2.113.514 3.166.793.49.114.974.441 1.098.954.138.465-.071.945-.37 1.295-.7.849-1.405 1.69-2.106 2.537.068 1.138.184 2.272.258 3.41.047.493-.142 1.04-.588 1.297-.377.244-.86.207-1.266.056-1.02-.382-2.005-.862-3.032-1.227-.626.121-1.19.47-1.79.685-.672.238-1.31.667-2.045.66-.677-.018-1.207-.675-1.155-1.337.061-1.184.2-2.363.266-3.545-.697-.836-1.389-1.675-2.087-2.509-.308-.36-.533-.849-.39-1.328.122-.489.573-.814 1.043-.933 1.068-.277 2.143-.528 3.21-.802.575-.93 1.116-1.878 1.693-2.805zm1.204 1.969c-.426.698-.83 1.41-1.27 2.101a1.558 1.558 0 01-.925.667c-.777.218-1.567.383-2.348.59.568.743 1.27 1.391 1.737 2.206.388 1.056.013 2.194.004 3.283.73-.274 1.431-.63 2.17-.878 1.233-.336 2.328.494 3.44.88-.053-.728-.127-1.453-.169-2.18-.034-.526.067-1.082.409-1.497.492-.611 1.002-1.207 1.498-1.816-.798-.202-1.6-.39-2.395-.603-.413-.108-.745-.406-.956-.77-.404-.657-.79-1.327-1.195-1.983zm22.888 6.262c1.002-.465 2.048-.855 3.13-1.087.557-.154 1.08.27 1.236.787v.347c-.093.432-.418.79-.858.873-1.26.32-2.491.782-3.616 1.44-3.001 1.715-5.174 4.64-6.37 7.847-.187.468-.276.97-.483 1.431-.296.579-1.173.681-1.609.205-.328-.307-.343-.798-.206-1.2 1.323-4.527 4.451-8.63 8.776-10.643zm-42.721 4.994c1.968-.918 4.376-.815 6.257.276 1.774 1 3.02 2.835 3.36 4.836.407 2.256-.197 4.562-1.193 6.585l4.99-2.779c.617-.342 1.234-.759 1.958-.819 1.188-.143 2.415.494 2.985 1.544.718 1.29 1.452 2.571 2.15 3.872.721 1.387.125 3.25-1.252 3.98-4.645 2.6-9.302 5.181-13.948 7.781 8.414.005 16.826-.001 25.24.003 1.36-.052 2.571 1.184 2.51 2.542.003 7.246 0 14.49.001 21.737.017.891-.281 1.787-.864 2.466-.698.842-1.79 1.315-2.88 1.299-11.397-.001-22.797.005-34.195-.004-1.883.034-3.6-1.599-3.629-3.487-.02-5.616-.001-11.234-.01-16.85-2.036 1.132-4.07 2.267-6.106 3.4-.572.325-1.17.67-1.843.699A3.049 3.049 0 013.59 51.64a356.61 356.61 0 01-2.153-3.867c-.732-1.344-.217-3.183 1.102-3.956 2.011-1.141 4.041-2.249 6.057-3.383-2.184-.22-4.412-.863-6.112-2.308A7.09 7.09 0 010 33.254v-.745c.113-2.04 1.155-4.007 2.812-5.209 1.668-1.265 3.865-1.65 5.91-1.369 2.883.389 5.51 1.815 7.83 3.51.412-.228.824-.46 1.235-.692-.24-2.953-.085-6.054 1.24-8.758.208-.394.394-.882.853-1.04.557-.226 1.244.155 1.352.745.113.504-.248.935-.436 1.372-.944 2.043-1.111 4.347-1.03 6.568.853-.527 1.857-.78 2.856-.648.35-1.475.863-2.927 1.646-4.231.27-.51.988-.69 1.46-.352.469.294.588.967.281 1.422a13.097 13.097 0 00-1.468 4.039c.818.732 1.222 1.772 1.776 2.692.498-.316 1.122-.49 1.474-.995 1.11-1.499 2.072-3.145 2.554-4.96.341-1.306.404-2.734-.092-4.01-.493-1.312-1.576-2.39-2.91-2.836-1.153-.413-2.448-.323-3.568.157-.53.26-1.23-.029-1.402-.599a1.017 1.017 0 01.54-1.25zM37.918 26.44c-3.53 1.983-7.078 3.928-10.6 5.923 1.02 1.808 2.022 3.626 3.038 5.436 3.583-1.995 7.165-3.994 10.748-5.991.483-.224.73-.853.47-1.332-.618-1.156-1.279-2.29-1.906-3.44-.173-.304-.35-.659-.707-.773-.356-.154-.734-.008-1.043.177zM5.89 28.081c-1.318.324-2.52 1.17-3.195 2.36-.786 1.342-.864 3.081-.161 4.476.6 1.26 1.758 2.175 3.025 2.707 1.998.83 4.213.93 6.344.757.602.017 1.064-.42 1.575-.669-.498-.976-1.203-1.88-1.362-2.992-1.356-.477-2.78-.703-4.202-.873-.524-.038-.966-.51-.944-1.039-.005-.564.53-1.066 1.095-.999 1.47.14 2.932.406 4.343.846.418-.955 1.227-1.668 2.157-2.108-1.5-1.018-3.125-1.89-4.888-2.352-1.23-.32-2.544-.429-3.787-.114zm15.165 1.199c-1.986 1.104-3.974 2.21-5.955 3.32-.804.427-1.187 1.492-.808 2.325.298.61.656 1.192.981 1.79l9.25-5.158c-.359-.61-.658-1.255-1.06-1.837-.54-.73-1.644-.926-2.408-.44zm-4.782 9.223c1.006 1.82 2.024 3.634 3.035 5.45 3.084-1.718 6.171-3.43 9.253-5.156l-3.037-5.446c-3.085 1.716-6.166 3.439-9.251 5.152zM3.69 45.52c-.496.236-.691.901-.403 1.37a490.87 490.87 0 002.063 3.699c.26.514.968.659 1.437.344 3.58-1.985 7.153-3.985 10.728-5.978-1.009-1.819-2.023-3.633-3.036-5.449-3.596 2.006-7.196 4.003-10.789 6.014zm20.842-2.108c-2.71 1.467-5.391 2.996-8.087 4.49.003 5.953-.007 11.906.004 17.858-.012.855.76 1.599 1.612 1.574 3.732.01 7.465.001 11.197.004.007-3.31-.003-6.62.004-9.93-.033-.46.264-.915.706-1.05.664-.246 1.415.354 1.341 1.054.007 3.309-.003 6.617.004 9.928 2.58-.002 5.158 0 7.738-.002.002-7.982.002-15.962 0-23.943-2.58-.002-5.158 0-7.738 0-.005 2.99.001 5.981-.003 8.972.044.504-.307 1.012-.812 1.106-.589.148-1.232-.344-1.229-.954-.022-3.04 0-6.082-.01-9.124-1.576.012-3.154-.027-4.727.017zm16.572-.015v23.94c3.709.002 7.42.004 11.128-.002.584.018 1.172-.276 1.463-.79.296-.481.214-1.069.226-1.606-.003-6.973-.002-13.944-.002-20.917.052-.3-.135-.658-.477-.622-4.112-.01-8.226-.005-12.338-.003z" fill="#222"/><path d="M50.37 17.305c.605-.267 1.356.211 1.389.868.24 2.55.268 5.121.097 7.676-.185 2.392-.528 4.791-1.31 7.067-.53 1.523-1.26 3.006-2.347 4.211-.245.296-.651.451-1.027.357a1.033 1.033 0 01-.79-1.122c.024-.302.239-.535.42-.758 1.107-1.293 1.736-2.915 2.18-4.539 1.034-4.11 1.07-8.408.748-12.615-.08-.471.183-.98.64-1.145zm11.264 9.055c.268-.424.741-.753 1.26-.7.54.027.944.447 1.201.884.536.887 1.064 1.779 1.597 2.667.98.246 1.962.482 2.94.729.621.116 1.249.488 1.368 1.158v.289c-.069.32-.212.62-.42.873-.697.859-1.427 1.69-2.11 2.56.088 1.063.176 2.127.26 3.192.043.465-.01.994-.376 1.326-.335.342-.864.407-1.307.267-1.112-.36-2.145-.957-3.267-1.279-.639.18-1.228.505-1.847.737-.614.231-1.206.596-1.877.61-.655.004-1.202-.597-1.19-1.243.018-1.199.218-2.39.245-3.589-.665-.992-1.541-1.834-2.245-2.802-.275-.378-.351-.907-.123-1.325.197-.39.607-.608 1.016-.712.93-.24 1.864-.461 2.797-.692.146-.055.345-.066.425-.223.567-.898 1.08-1.832 1.653-2.728zm1.17 2.02c-.414.675-.809 1.362-1.226 2.033-.206.34-.525.611-.912.716-.797.225-1.605.407-2.407.609.504.625 1.039 1.225 1.53 1.86.31.394.401.91.378 1.4-.038.744-.122 1.488-.17 2.233.762-.287 1.49-.671 2.272-.905 1.201-.268 2.254.532 3.34.904-.051-.7-.12-1.397-.167-2.097-.041-.543.04-1.127.392-1.562.494-.619 1.012-1.218 1.51-1.832-.754-.2-1.517-.369-2.271-.569-.394-.094-.76-.314-.98-.661-.45-.698-.854-1.423-1.289-2.129z" fill="#222"/></svg>
